X: 12916
T: Fiddle Head
R: reel
M: 4/4
K: Dmajor
A,2|:"D"D4D2D2|FDFA d2(3(ABc|d2)A2 F2D2|"A"GEED c,2A,2|"D"D4 D2D2|
FDFA d2D2|"A"A,2C2 EFGE|1 F2D2 D2A2:|2 F2D2 D2(3(ABc||"D"d4)d2(Bc|d2)A2 F2D2|
F4F2(FG|"A"F2)E2 E2(3(ABc|"D"d4) d2(Bc|d2)A2 F2D2|"A"A,2C2 EFGE|1 "D"F2D2 D2(3(ABc:|2 "D"F2D2 D4||

